X:1
T:Tempest, The
R:reel
Z:transcribed by Philippe Varlet
L:1/8
M:C|
K:Ddor
d2cA GE~E2|DEcE dEcE|d2cA GEcE|{G}EDCD EDD2|
d2cA GE~E2|DEcE dEcE|DEFA GEcE|{G}EDCD EDD2:||
d2ed cAGc|AdcA GE~E2|d2ed cdef|edcA da{b}ag|
eage dcAB|cAGc AcGE|DEFA GEcE|{G}EDCD EDD2:||

